X:261
T:Crimea River
M:2/4
L:1/16
C:© Paul Gitlitz 2011
R:Polka
K:Bb
"Bb"B2d2 dedc|B2d2 d3B|"F"A2c2 cdcA|f2e2 "D7"d2c2|!
"Gm"G2B2 BcdB|G2B2 B3G|"A7"A2G2 F2=E2|"D7"D6A2:|!
|:"F"F2A2 ABcA|F2A2 ABcA|"Gm"G2B2 BcdB|G2B2 BcdB|!
"F"F2A2 ABcA|F2A2 "Eb"e3d|"F"c2A2 F2D2|"Dm"D2F2 "Gm"G4:|]
